X:1
T:Title
%%score { ( 1 3 ) | 2 }
L:1/8
M:4/4
K:Bb
V:1 treble nm="Grand Piano"
V:3 treble 
V:2 bass 
V:1
 z4 z2[Q:1/4=94] [DF]2 | [DF]3 [Fd] [Ec][DB][DA][DB] | [EG]4- [EG][GB][FA]G | F2 F2 F2 E2 | %4
 D6 [DF]2 |[M:2/4] [DF]3 [Fd] | [Ec][DB] [DA][DB] |[M:5/8] G-G- G3 |[M:3/8] BAG | %9
[M:4/4] z DDD Cedc | %10
[M:7/8] B-B-B- B- B3[Q:1/4=91][Q:1/4=88][Q:1/4=85][Q:1/4=82][Q:1/4=79][Q:1/4=76][Q:1/4=73] |] %11
V:2
 z4 z2 [B,,B,]2 | [B,,B,]3 [B,,B,] [B,,B,][B,,B,][B,,B,][B,,B,] | %2
 [E,B,]4- [E,B,][E,B,][E,B,][F,B,E] | [F,B,D]2 [F,B,D]2 [F,A,C]2 [F,C]2 | [B,,F,B,]6 [B,,B,]2 | %5
[M:2/4] [B,,B,]3 [B,,B,] | [B,,B,][B,,B,] [B,,B,][B,,B,] |[M:5/8] [E,B,E]-[E,B,E]- [E,B,E]3 | %8
[M:3/8] z3 |[M:4/4] z [F,B,][F,B,][F,B,] .[F,A,]2 z2 |[M:7/8] z [B,,F,][E,G,] [E,G,] [B,,F,]3 |] %11
V:3
 x8 | x8 | x8 | x8 | x8 |[M:2/4] x4 | x4 |[M:5/8] x5 |[M:3/8] x3 |[M:4/4] F6 z2 | %10
[M:7/8] z DE E D3 |] %11

